src/ClientApp/src/assets/twitter_grey.svg

<svg width="45" height="45" viewBox="0 0 45 45" fill="none" xmlns="http://www.w3.org/2000/svg">
<rect width="45" height="45" rx="5" fill="#ACACAC"/>
<path d="M39.2308 15.1964C38.0085 15.7383 36.6936 16.1048 35.3147 16.2685C36.7226 15.4251 37.8031 14.0908 38.313 12.4982C36.9957 13.2795 35.5359 13.8463 33.9836 14.1518C32.74 12.8276 30.9681 12 29.006 12C25.2415 12 22.1883 15.0525 22.1883 18.8162C22.1883 19.3505 22.2488 19.8705 22.3657 20.3697C16.6997 20.0855 11.6757 17.372 8.3129 13.2469C7.72616 14.2534 7.38957 15.4251 7.38957 16.6741C7.38957 19.0384 8.59407 21.1256 10.4224 22.3476C9.30538 22.3125 8.25342 22.006 7.33466 21.4941C7.33415 21.5231 7.33415 21.552 7.33415 21.5805C7.33415 24.8831 9.68519 27.6378 12.8035 28.2635C12.232 28.4201 11.6285 28.503 11.0076 28.503C10.5673 28.503 10.1408 28.4608 9.72485 28.3815C10.5923 31.0888 13.1095 33.0596 16.0936 33.1151C13.7598 34.9435 10.8205 36.0329 7.62549 36.0329C7.07637 36.0329 6.53234 36.0008 6 35.9373C9.01557 37.872 12.6001 39 16.45 39C28.9902 39 35.8481 28.6138 35.8481 19.6056C35.8481 19.3103 35.8415 19.016 35.8283 18.7242C37.1614 17.7635 38.3171 16.5633 39.2308 15.1964Z" fill="#D9D9D9"/>
</svg>

<svg width="45" height="45" fill="none" xmlns="http://www.w3.org/2000/svg"><rect width="45" height="45" rx="5" fill="#ACACAC"/><path d="M39.23 15.196a13.605 13.605 0 01-3.915 1.072 6.835 6.835 0 002.998-3.77 13.65 13.65 0 01-4.33 1.654A6.812 6.812 0 0029.007 12a6.818 6.818 0 00-6.64 8.37 19.355 19.355 0 01-14.053-7.123 6.786 6.786 0 00-.923 3.427 6.815 6.815 0 003.032 5.674 6.77 6.77 0 01-3.087-.854v.087a6.82 6.82 0 005.468 6.683 6.794 6.794 0 01-3.078.117 6.825 6.825 0 006.369 4.734 13.682 13.682 0 01-8.469 2.918c-.549 0-1.093-.032-1.625-.096A19.288 19.288 0 0016.45 39c12.54 0 19.398-10.386 19.398-19.394 0-.296-.006-.59-.02-.882a13.824 13.824 0 003.403-3.528z" fill="#D9D9D9"/></svg>
